front/src/Assets/image/payment/ic_input.svg

<svg width="14" height="14" viewBox="0 0 14 14" fill="none" xmlns="http://www.w3.org/2000/svg">
<g clip-path="url(#clip0_28_916)">
<path d="M8.61613 12.1784C8.46561 11.8674 8.59857 11.4911 8.90964 11.3405C9.77512 10.9241 10.5077 10.2769 11.0294 9.46658C11.5638 8.63622 11.8473 7.67289 11.8473 6.67947C11.8473 3.82964 9.52928 1.51165 6.67945 1.51165C3.82963 1.51165 1.51163 3.82964 1.51163 6.67947C1.51163 7.67289 1.79511 8.63621 2.32694 9.46909C2.84623 10.2794 3.58127 10.9266 4.44675 11.343C4.75783 11.4936 4.89078 11.8674 4.74026 12.1809C4.58975 12.492 4.21596 12.625 3.90238 12.4744C2.82616 11.9577 1.91553 11.1549 1.2708 10.1464C0.608519 9.11286 0.257308 7.91372 0.257308 6.67947C0.257308 4.96355 0.924609 3.35049 2.1388 2.13881C3.35047 0.924625 4.96354 0.257325 6.67945 0.257325C8.39537 0.257325 10.0084 0.924626 11.2201 2.13881C12.4343 3.353 13.1016 4.96355 13.1016 6.67947C13.1016 7.91372 12.7504 9.11286 12.0856 10.1464C11.4384 11.1524 10.5277 11.9577 9.45402 12.4744C9.14044 12.6225 8.76665 12.492 8.61613 12.1784Z" fill="#2BC155"/>
<path d="M9.12031 7.01333C9.24324 7.13626 9.30344 7.29681 9.30344 7.45736C9.30344 7.61792 9.24324 7.77847 9.12031 7.90139L7.54237 9.47933C7.31158 9.71013 7.00552 9.83556 6.68191 9.83556C6.35829 9.83556 6.04973 9.70762 5.82144 9.47933L4.2435 7.90139C3.99765 7.65555 3.99765 7.25918 4.2435 7.01333C4.48935 6.76748 4.88571 6.76748 5.13156 7.01333L6.05725 7.93902L6.05725 4.37423C6.05725 4.02804 6.33822 3.74707 6.68441 3.74707C7.03061 3.74707 7.31158 4.02804 7.31158 4.37423L7.31158 7.94153L8.23727 7.01584C8.4781 6.76999 8.87447 6.76999 9.12031 7.01333Z" fill="#2BC155"/>
</g>
<defs>
<clipPath id="clip0_28_916">
<rect width="12.8443" height="12.8443" fill="white" transform="matrix(-9.93477e-08 1 1 9.93477e-08 0.257309 0.257324)"/>
</clipPath>
</defs>
</svg>

<svg xmlns="http://www.w3.org/2000/svg" fill="none" viewBox="0 0 14 14">
  <g fill="#2BC155" clip-path="url(#clip0_28_916)">
    <path d="M8.616 12.178a.63.63 0 01.294-.838 5.202 5.202 0 002.12-1.873c.534-.83.817-1.794.817-2.788A5.173 5.173 0 006.68 1.512a5.173 5.173 0 00-4.352 7.957 5.187 5.187 0 002.12 1.874.629.629 0 01-.545 1.131A6.414 6.414 0 01.257 6.68c0-1.715.668-3.329 1.882-4.54A6.371 6.371 0 016.679.257c1.716 0 3.33.668 4.541 1.882a6.376 6.376 0 011.882 4.54 6.395 6.395 0 01-1.016 3.467 6.462 6.462 0 01-2.632 2.328.63.63 0 01-.838-.296z"/>
    <path d="M9.12 7.013a.625.625 0 01.183.444c0 .16-.06.321-.183.444L7.542 9.48a1.215 1.215 0 01-1.72 0l-1.58-1.579a.627.627 0 11.889-.888l.925.926V4.374a.627.627 0 011.255 0v3.568l.925-.926a.623.623 0 01.883-.003z"/>
  </g>
  <defs>
    <clipPath id="clip0_28_916">
      <path fill="#fff" d="M0 0h12.84v12.84H0z" transform="matrix(0 1 1 0 .257 .257)"/>
    </clipPath>
  </defs>
</svg>
